icons-common/close.svg

<svg height="1em" width="auto" viewBox="0 0 105 105" fill="currentColor" xmlns="http://www.w3.org/2000/svg">
    <path d="M76.6364 34.0501C63.1849 48.9893 48.9896 63.1846 34.0504 76.6361C31.8188 78.6197 28.3475 78.3718 26.3639 76.1402C24.5662 74.0326 24.5662 70.9952 26.3639 68.9496C32.9966 61.387 40.0633 54.2583 47.13 47.0677C54.3206 40.063 61.4492 32.9963 69.0118 26.3636C71.2434 24.38 74.7147 24.6279 76.6984 26.8595C78.496 28.9671 78.496 32.0045 76.6984 34.0501H76.6364Z"
          />
    <path d="M69.0117 76.6363C54.0105 63.1848 39.8152 48.9895 26.3637 34.0503C24.3801 31.7568 24.5661 28.3474 26.8596 26.3638C28.9053 24.5041 32.0047 24.5661 34.0503 26.3638C41.6129 32.9965 48.7415 40.0632 55.9322 47.1299C62.9988 54.3205 70.0655 61.4492 76.6982 69.0117C78.6819 71.2433 78.4339 74.7146 76.2023 76.6983C74.0947 78.4959 71.0573 78.4959 69.0117 76.6983V76.6363Z"
          />
</svg>

<svg xmlns="http://www.w3.org/2000/svg" width="auto" height="1em" fill="currentColor" viewBox="0 0 105 105">
    <path d="M76.636 34.05A575 575 0 0 1 34.05 76.636c-2.231 1.984-5.702 1.736-7.686-.496-1.798-2.107-1.798-5.145 0-7.19 6.633-7.563 13.7-14.692 20.766-21.882 7.19-7.005 14.32-14.072 21.882-20.704 2.231-1.984 5.703-1.736 7.686.495 1.798 2.108 1.798 5.145 0 7.191z"/>
    <path d="M69.012 76.636A564 564 0 0 1 26.364 34.05c-1.984-2.293-1.798-5.703.496-7.686 2.045-1.86 5.145-1.798 7.19 0 7.563 6.632 14.692 13.7 21.882 20.766C63 54.32 70.065 61.45 76.698 69.012c1.984 2.231 1.736 5.703-.496 7.686-2.107 1.798-5.145 1.798-7.19 0z"/>
</svg>
